icons/actions/22/draw-ellipse.svg

<svg version="1.1" viewBox="0 0 22 22" xmlns="http://www.w3.org/2000/svg">
    <defs>
        <style type="text/css" id="current-color-scheme">.ColorScheme-Text {
        color:#232629;
      }</style>
    </defs>
    <path class="ColorScheme-Text" d="m11 5a8 6 0 0 0-8 6 8 6 0 0 0 8 6 8 6 0 0 0 8-6 8 6 0 0 0-8-6m0 1a7 5 0 0 1 7 5 7 5 0 0 1-7 5 7 5 0 0 1-7-5 7 5 0 0 1 7-5" fill="currentColor"/>
    <path d="m10.094968 16.358588c-3.3012762-0.285597-5.9624644-2.210644-6.4378608-4.657013-0.4615539-2.3751354 1.3574104-4.6724752 4.4867958-5.6667933 2.369001-0.7527163 5.09499-0.5436637 7.300339 0.5598538 1.093053 0.5469438 2.339173 1.7467516 2.785338 2.6818205 0.265363 0.5561455 0.292121 0.7104623 0.292705 1.688023 6.05e-4 1.038944-0.0124 1.102649-0.378785 1.853716-1.166128 2.390467-4.481773 3.848956-8.048532 3.540393z" class="ColorScheme-Text" fill="currentColor" fill-opacity=".50196078"/>
</svg>

<svg xmlns="http://www.w3.org/2000/svg" viewBox="0 0 22 22">
  <defs id="defs3051">
    <style type="text/css" id="current-color-scheme">
      .ColorScheme-Text {
        color:#232629;
      }
      </style>
  </defs>
 <path 
    style="fill:currentColor;fill-opacity:1;stroke:none" 
	d="M11 5A8 6 0 0 0 3 11 8 6 0 0 0 11 17 8 6 0 0 0 19 11 8 6 0 0 0 11 5M11 6A7 5 0 0 1 18 11 7 5 0 0 1 11 16 7 5 0 0 1 4 11 7 5 0 0 1 11 6"
    class="ColorScheme-Text"
    />  
</svg>
